X:1
T:King of Zion
T:King of Zion
T:William Howard Doane
T:Frances Jane (Fanny) Crosby, 1879
T:Public Domain Courtesy of the Cyber Hymnal™
C:William Howard Doane
Z:Public Domain
Z:Courtesy of the Cyber Hymnal™
%%score ( 1 2 ) ( 3 4 )
L:1/8
Q:1/4=110
M:4/4
K:Eb
V:1 treble 
V:2 treble 
V:3 bass 
V:4 bass 
V:1
 [EG]2 [EG]2 [EG]2 [DF]2 | E2 [Ec]2 [EB]4 | [GB]2 ([EG][FA]) [GB]2 (Gc) | [EB]2 ([FA][EG]) [DF]4 | %4
w: 1.~Zi- on’s mount His|roy- al seat,|And no * power His *|throne shall * move;|
w: 2.~All the world His|Name shall fear,|All the * world from *|shore to * shore;|
w: 3.~He shall mold each|stub- born will,|As the * pot- ter *|molds the * clay,|
w: 4.~Haste our ear- ly|gifts to bring,|Haste o- * be- dient *|faith to * prove,|
 [EG]2 [EG]2 [EG]2 [DF]2 | [CE]2 [Ec]2 [EB]4 | [EB]2 ([EG][FA]) [GB]2 ([Ac][GB]) | %7
w: Ag- es ga- ther|at His feet,|Son of * God’s e- *|
w: Ev- ery isle His|voice shall hear,|And the * heath- en *|
w: Till re- bell- ious|hearts are stilled,|And sub- * miss- ive *|
w: Haste with songs to|Zi- on’s king,|Son of * God’s e- *|
 [FA]2 [DF]2 E4 ||"^Refrain" [Ac]4 [Ae]4 | [GB]3 [Ac] [GB]2 [EG]2 | [FB]2 [F=A]>[FB] [Fc]2 [Fe]2 | %11
w: ter- nal love.||||
w: rage no more.|Hail, hail,|King of Zi- on!|Hail, Lord of lords, and|
w: to His sway.||||
w: ter- nal love.||||
 [Fd]3 [Ec] B4 [DA]2 | [Ge]3 [GB] [Ac]2 [GB]2 | [FB]3 [FA] [FA]2 [EG]2 | %14
w: |||
w: King of kings! Reign|* for- ev- er,|King of Zi- on;|
w: |||
w: |||
 [EG]2 [FA][GB] [Ac]2 [Be]2 | [Ge]2 d2 [Ge]4 |] %16
w: ||
w: Reign, bless- èd King, for-|ev- * er-|
w: ||
w: ||
V:2
 x8 | E2 x6 | x6 E2 | x8 | x8 | x8 | x8 | x4 E4 || x8 | x8 | x8 | x4 [D-F]2 x4 | x8 | x8 | x8 | %15
 x2 (FA) x4 |] %16
V:3
 [E,B,]2 [G,B,]2 B,2 [B,,A,]2 | [E,G,]2 [E,A,]2 [E,G,]4 | [E,B,]2 [E,B,]2 [E,E]2 (B,A,) | %3
 [E,G,]2 B,2 [B,,B,]4 | [E,B,]2 [G,B,]2 B,2 [=B,,A,]2 | [C,G,]2 [A,,A,]2 [E,G,]4 | %6
 [E,G,]2 [E,B,]2 [E,E]2 [E,B,]2 | [B,,B,]2 [B,,A,]2 [E,G,]4 || [A,E]4 [A,C]4 | %9
 [E,E]3 [E,E] [E,E]2 [E,B,]2 | [F,D]2 [F,C]>[F,D] [F,E]2 [F,C]2 | [F,B,]3 [F,=A,] [B,,B,]4 x2 | %12
 [E,B,]3 [E,E] [E,E]2 [E,E]2 | [D,B,]3 [D,B,] [E,B,]2 [E,B,]2 | [E,B,]2 [E,B,][E,E] [A,E]2 [G,E]2 | %15
 B,2 [B,,B,]2 [E,B,]4 |] %16
V:4
 x4 B,2 x2 | x8 | x6 E,2 | x2 (D,E,) x4 | x4 =B,2 x2 | x8 | x8 | x8 || x8 | x8 | x8 | x10 | x8 | %13
 x8 | x8 | B,2 x6 |] %16

